svg/emoji_u1f9a0.svg

<?xml version="1.0" encoding="utf-8"?>
<!-- Generator: Adobe Illustrator 24.1.2, SVG Export Plug-In . SVG Version: 6.00 Build 0)  -->
<svg version="1.1" id="Layer_2" xmlns="http://www.w3.org/2000/svg" xmlns:xlink="http://www.w3.org/1999/xlink" x="0px" y="0px"
	 viewBox="0 0 128 128" style="enable-background:new 0 0 128 128;" xml:space="preserve">
<g>
	<path style="fill:#7ADC8A;" d="M65.82,31.35c-0.49,0-0.97-0.2-1.32-0.6c-0.64-0.73-0.57-1.83,0.16-2.47l9.2-8.07
		c0.73-0.64,1.83-0.56,2.47,0.16c0.64,0.73,0.57,1.83-0.16,2.47l-9.2,8.07C66.65,31.2,66.23,31.35,65.82,31.35z"/>
</g>
<g>
	<path style="fill:#7ADC8A;" d="M47.62,17.83c-0.06,0-0.12,0-0.18-0.01c-0.96-0.1-1.66-0.96-1.56-1.92l0.94-9.2
		c0.1-0.96,0.95-1.66,1.92-1.56c0.96,0.1,1.66,0.96,1.56,1.92l-0.94,9.2C49.27,17.16,48.5,17.83,47.62,17.83z"/>
</g>
<g>
	<path style="fill:#7ADC8A;" d="M29.93,22.76c-0.52,0-1.04-0.23-1.39-0.68l-6.94-9.01c-0.59-0.77-0.45-1.86,0.32-2.45
		s1.86-0.45,2.45,0.32l6.94,9.01c0.59,0.77,0.45,1.86-0.32,2.45C30.67,22.64,30.3,22.76,29.93,22.76z"/>
</g>
<g>
	<path style="fill:#7ADC8A;" d="M17.96,36.79c-0.13,0-0.26-0.01-0.39-0.04l-10.7-2.44c-0.94-0.21-1.53-1.15-1.32-2.1
		c0.22-0.94,1.15-1.53,2.1-1.32l10.7,2.44c0.94,0.21,1.53,1.15,1.32,2.1C19.48,36.24,18.76,36.79,17.96,36.79z"/>
</g>
<g>
	<path style="fill:#7ADC8A;" d="M12.14,64.76c-0.62,0-1.23-0.34-1.54-0.93c-0.46-0.85-0.13-1.91,0.72-2.37l10.89-5.82
		c0.85-0.46,1.91-0.13,2.37,0.72c0.46,0.85,0.13,1.91-0.72,2.37l-10.89,5.82C12.7,64.69,12.42,64.76,12.14,64.76z"/>
</g>
<g>
	<path style="fill:#7ADC8A;" d="M37.67,82.97c-0.39,0-0.78-0.13-1.1-0.39c-0.75-0.61-0.87-1.71-0.26-2.46l8.07-9.95
		c0.61-0.75,1.71-0.86,2.46-0.26c0.75,0.61,0.87,1.71,0.26,2.46l-8.07,9.95C38.68,82.75,38.18,82.97,37.67,82.97z"/>
</g>
<g>
	<path style="fill:#7ADC8A;" d="M53.81,99.48c-0.61,0-1.21-0.32-1.53-0.9c-0.47-0.84-0.17-1.91,0.67-2.38l11.07-6.19
		c0.84-0.47,1.91-0.17,2.38,0.67c0.47,0.84,0.17,1.91-0.67,2.38l-11.07,6.19C54.39,99.41,54.1,99.48,53.81,99.48z"/>
</g>
<g>
	<path style="fill:#7ADC8A;" d="M69.2,119.76c-0.3,0-0.61-0.08-0.9-0.25c-0.83-0.5-1.1-1.57-0.61-2.4l7.51-12.58
		c0.5-0.83,1.57-1.1,2.4-0.61c0.83,0.5,1.1,1.57,0.61,2.4l-7.51,12.58C70.38,119.45,69.8,119.76,69.2,119.76z"/>
</g>
<g>
	<path style="fill:#7ADC8A;" d="M93.6,123.51c-0.81,0-1.54-0.57-1.71-1.39l-2.82-13.51c-0.2-0.95,0.41-1.87,1.36-2.07
		c0.94-0.2,1.87,0.41,2.07,1.36l2.82,13.51c0.2,0.95-0.41,1.87-1.36,2.07C93.84,123.5,93.72,123.51,93.6,123.51z"/>
</g>
<g>
	<path style="fill:#7ADC8A;" d="M115,112.62c-0.45,0-0.91-0.17-1.25-0.52l-9.39-9.57c-0.68-0.69-0.67-1.8,0.02-2.48
		s1.8-0.67,2.48,0.02l9.39,9.57c0.68,0.69,0.67,1.8-0.02,2.48C115.89,112.46,115.45,112.62,115,112.62z"/>
</g>
<g>
	<path style="fill:#7ADC8A;" d="M111.06,87.85c-0.85,0-1.59-0.62-1.73-1.48c-0.15-0.96,0.51-1.85,1.46-2l10.89-1.69
		c0.96-0.14,1.85,0.51,2,1.46c0.15,0.96-0.51,1.85-1.46,2l-10.89,1.69C111.24,87.84,111.15,87.85,111.06,87.85z"/>
</g>
<g>
	<path style="fill:#7ADC8A;" d="M99.42,72.45c-0.4,0-0.8-0.14-1.13-0.41c-0.74-0.62-0.83-1.73-0.21-2.47l9.2-10.89
		c0.62-0.74,1.73-0.83,2.47-0.21c0.74,0.62,0.83,1.73,0.21,2.47l-9.2,10.89C100.41,72.24,99.92,72.45,99.42,72.45z"/>
</g>
<g>
	<path style="fill:#7ADC8A;" d="M81.03,55c-0.4,0-0.8-0.14-1.13-0.42c-0.74-0.62-0.83-1.73-0.2-2.47l9.38-11.07
		c0.62-0.74,1.73-0.83,2.47-0.2c0.74,0.62,0.83,1.73,0.2,2.47l-9.38,11.07C82.02,54.79,81.52,55,81.03,55z"/>
</g>
<g>
	<path style="fill:#01AB46;" d="M57.19,22.9c-0.3,0-0.6-0.08-0.88-0.24c-0.84-0.49-1.12-1.56-0.63-2.39L63,7.69
		c0.49-0.83,1.56-1.12,2.39-0.63c0.83,0.49,1.12,1.56,0.63,2.39L58.7,22.03C58.38,22.59,57.79,22.9,57.19,22.9z"/>
</g>
<g>
	<path style="fill:#01AB46;" d="M72.58,43.36c-0.54,0-1.07-0.25-1.41-0.72c-0.57-0.78-0.4-1.87,0.38-2.45l11.26-8.26
		c0.78-0.57,1.87-0.4,2.45,0.38c0.57,0.78,0.4,1.87-0.38,2.45l-11.26,8.26C73.3,43.25,72.94,43.36,72.58,43.36z"/>
</g>
<g>
	<path style="fill:#01AB46;" d="M90.6,64.76c-0.3,0-0.61-0.08-0.89-0.24c-0.83-0.49-1.11-1.56-0.62-2.4l7.51-12.76
		c0.49-0.83,1.56-1.11,2.4-0.62c0.83,0.49,1.11,1.56,0.62,2.4L92.11,63.9C91.78,64.45,91.2,64.76,90.6,64.76z"/>
</g>
<g>
	<path style="fill:#01AB46;" d="M105.62,79.4c-0.56,0-1.11-0.27-1.45-0.76c-0.55-0.8-0.34-1.89,0.45-2.43l10.14-6.95
		c0.8-0.55,1.89-0.34,2.43,0.45c0.55,0.8,0.34,1.89-0.45,2.43l-10.14,6.95C106.3,79.3,105.96,79.4,105.62,79.4z"/>
</g>
<g>
	<path style="fill:#01AB46;" d="M103.55,118.82c-0.63,0-1.24-0.34-1.55-0.94L96,106.43c-0.45-0.86-0.12-1.91,0.74-2.36
		c0.86-0.45,1.91-0.12,2.36,0.74l6.01,11.45c0.45,0.86,0.12,1.91-0.74,2.36C104.11,118.75,103.83,118.82,103.55,118.82z"/>
</g>
<g>
	<path style="fill:#01AB46;" d="M81.41,123.51c-0.11,0-0.23-0.01-0.34-0.03c-0.95-0.19-1.56-1.11-1.37-2.06l2.63-13.14
		c0.19-0.95,1.12-1.57,2.06-1.37c0.95,0.19,1.56,1.11,1.37,2.06l-2.63,13.14C82.95,122.93,82.22,123.51,81.41,123.51z"/>
</g>
<g>
	<path style="fill:#01AB46;" d="M59.25,109.43c-0.52,0-1.03-0.23-1.37-0.66c-0.6-0.76-0.47-1.86,0.28-2.46l9.95-7.88
		c0.76-0.6,1.86-0.47,2.46,0.28c0.6,0.76,0.47,1.86-0.28,2.46l-9.95,7.88C60.02,109.31,59.64,109.43,59.25,109.43z"/>
</g>
<g>
	<path style="fill:#01AB46;" d="M47.99,90.1c-0.49,0-0.99-0.21-1.33-0.61c-0.63-0.73-0.54-1.84,0.19-2.47l10.32-8.82
		c0.73-0.63,1.84-0.54,2.47,0.19c0.63,0.73,0.54,1.84-0.19,2.47l-10.32,8.82C48.8,89.96,48.39,90.1,47.99,90.1z"/>
</g>
<g>
	<path style="fill:#01AB46;" d="M22.65,75.83c-0.36,0-0.73-0.11-1.04-0.34c-0.78-0.58-0.94-1.67-0.36-2.45l7.51-10.14
		c0.57-0.78,1.67-0.94,2.45-0.36c0.78,0.58,0.94,1.67,0.36,2.45l-7.51,10.14C23.71,75.59,23.19,75.83,22.65,75.83z"/>
</g>
<g>
	<path style="fill:#01AB46;" d="M24.15,29.09c-0.34,0-0.68-0.1-0.98-0.3L12.1,21.28c-0.8-0.54-1.01-1.63-0.47-2.43
		c0.54-0.8,1.63-1.01,2.43-0.47l11.07,7.51c0.8,0.54,1.01,1.63,0.47,2.43C25.26,28.82,24.71,29.09,24.15,29.09z"/>
</g>
<g>
	<path style="fill:#01AB46;" d="M35.6,19.15c-0.84,0-1.58-0.6-1.72-1.46L32,6.61c-0.16-0.95,0.48-1.86,1.43-2.02
		c0.96-0.16,1.86,0.48,2.02,1.43l1.88,11.07c0.16,0.95-0.48,1.86-1.43,2.02C35.8,19.14,35.7,19.15,35.6,19.15z"/>
</g>
<path style="fill:#02AB47;" d="M23.4,21.9c-13.89,14.83-9.01,32.07,1.88,41.3c13.51,11.45,26.56,11.26,32.19,18.58
	s5.91,18.02,18.3,26.28c8.68,5.79,21.51,4.88,29.47-3.66c8.13-8.72,10.89-23.86,0.14-31.96c-10.84-8.17-13.09-8.68-22.67-19.57
	S69.58,25.84,58.13,18.33S32.03,12.69,23.4,21.9z"/>
<path style="fill:#7CDB8D;" d="M27.91,26.59c-9.76,10.51-8.46,25.75,6.19,34.91c12.01,7.51,17.68,6.44,27.22,16.42
	c8.07,8.45,8.86,17.72,14.83,22.81c8.82,7.51,18.97,4.93,24.87-0.42c6.05-5.49,9.1-17.79-4.79-27.92S78.12,56.45,75.21,52.12
	c-5.82-8.63-10.14-18.4-18.96-26.28C47.82,18.31,35.77,18.13,27.91,26.59z"/>
<path style="fill:#00AA46;" d="M81.59,84.13c1.35,2.33,0.47,4.88-0.84,5.82c-2.15,1.54-4.94,0.83-6.29-1.5
	c-1.35-2.33-0.84-5.15,1.5-6.38C77.74,81.12,80.24,81.79,81.59,84.13z"/>
<path style="fill:#00AA46;" d="M96.33,90.69c0.23,2.17-1.03,4.13-3.38,4.32c-2.81,0.23-4.13-2.05-4.13-4.22s1.41-4.04,3.85-3.94
	C94.79,86.93,96.14,88.91,96.33,90.69z"/>
<path style="fill:#00AA46;" d="M80.75,68.55c0.47,3.19-1.13,5.82-4.88,6.01c-2.93,0.15-5.86-2.78-5.84-5.63
	c0.02-3.47,2.16-5.35,5.09-5.35C78.05,63.57,80.33,65.72,80.75,68.55z"/>
<path style="fill:#FBC219;" d="M52.17,36.4c5.76,5.34,8.7,14.03,4.46,17.88c-4.04,3.66-13.14,1.78-19.15-3.85
	c-6.2-5.81-5.12-12.35-1.49-16.01C39.64,30.72,47.08,31.68,52.17,36.4z"/>
<path style="fill:#00AA46;" d="M69.42,54.71c0.63,1.98,0.1,3.97-1.63,4.68c-2.06,0.84-4.04-0.28-4.97-2.82
	c-0.72-1.94,0.47-3.86,2.25-4.42C66.84,51.59,68.79,52.74,69.42,54.71z"/>
<path style="fill:#00AA46;" d="M60.85,62.4c0.93,1.27,0.97,3.13-0.2,3.98c-1.17,0.86-3.12,0.39-4.05-0.88s-0.73-3,0.44-3.85
	C58.22,60.79,59.93,61.13,60.85,62.4z"/>
<g>
	<path style="fill:#01AB46;" d="M6.88,48.99c-0.9,0-1.66-0.69-1.74-1.6c-0.08-0.96,0.63-1.81,1.6-1.89l11.07-0.94
		c0.96-0.09,1.81,0.63,1.89,1.6c0.08,0.96-0.63,1.81-1.6,1.89L7.03,48.98C6.98,48.99,6.93,48.99,6.88,48.99z"/>
</g>
<g>
	<path style="fill:#01AB46;" d="M120.26,101.17c-0.31,0-0.62-0.08-0.9-0.25l-11.26-6.76c-0.83-0.5-1.1-1.57-0.6-2.4
		c0.5-0.83,1.57-1.1,2.4-0.6l11.26,6.76c0.83,0.5,1.1,1.57,0.6,2.4C121.43,100.87,120.85,101.17,120.26,101.17z"/>
</g>
</svg>

<?xml version="1.0" encoding="UTF-8" standalone="no"?>
<!DOCTYPE svg PUBLIC "-//W3C//DTD SVG 1.1//EN" "http://www.w3.org/Graphics/SVG/1.1/DTD/svg11.dtd">
<svg width="100%" height="100%" viewBox="0 0 128 128" version="1.1" xmlns="http://www.w3.org/2000/svg" xmlns:xlink="http://www.w3.org/1999/xlink" xml:space="preserve" xmlns:serif="http://www.serif.com/" style="fill-rule:evenodd;clip-rule:evenodd;stroke-linejoin:round;stroke-miterlimit:2;">
    <g>
        <path d="M65.82,31.35C65.33,31.35 64.85,31.15 64.5,30.75C63.86,30.02 63.93,28.92 64.66,28.28L73.86,20.21C74.59,19.57 75.69,19.65 76.33,20.37C76.97,21.1 76.9,22.2 76.17,22.84L66.97,30.91C66.65,31.2 66.23,31.35 65.82,31.35Z" style="fill:rgb(142,197,79);fill-rule:nonzero;"/>
    </g>
    <g>
        <path d="M47.62,17.83C47.56,17.83 47.5,17.83 47.44,17.82C46.48,17.72 45.78,16.86 45.88,15.9L46.82,6.7C46.92,5.74 47.77,5.04 48.74,5.14C49.7,5.24 50.4,6.1 50.3,7.06L49.36,16.26C49.27,17.16 48.5,17.83 47.62,17.83Z" style="fill:rgb(142,197,79);fill-rule:nonzero;"/>
    </g>
    <g>
        <path d="M29.93,22.76C29.41,22.76 28.89,22.53 28.54,22.08L21.6,13.07C21.01,12.3 21.15,11.21 21.92,10.62C22.69,10.03 23.78,10.17 24.37,10.94L31.31,19.95C31.9,20.72 31.76,21.81 30.99,22.4C30.67,22.64 30.3,22.76 29.93,22.76Z" style="fill:rgb(142,197,79);fill-rule:nonzero;"/>
    </g>
    <g>
        <path d="M17.96,36.79C17.83,36.79 17.7,36.78 17.57,36.75L6.87,34.31C5.93,34.1 5.34,33.16 5.55,32.21C5.77,31.27 6.7,30.68 7.65,30.89L18.35,33.33C19.29,33.54 19.88,34.48 19.67,35.43C19.48,36.24 18.76,36.79 17.96,36.79Z" style="fill:rgb(142,197,79);fill-rule:nonzero;"/>
    </g>
    <g>
        <path d="M12.14,64.76C11.52,64.76 10.91,64.42 10.6,63.83C10.14,62.98 10.47,61.92 11.32,61.46L22.21,55.64C23.06,55.18 24.12,55.51 24.58,56.36C25.04,57.21 24.71,58.27 23.86,58.73L12.97,64.55C12.7,64.69 12.42,64.76 12.14,64.76Z" style="fill:rgb(142,197,79);fill-rule:nonzero;"/>
    </g>
    <g>
        <path d="M37.67,82.97C37.28,82.97 36.89,82.84 36.57,82.58C35.82,81.97 35.7,80.87 36.31,80.12L44.38,70.17C44.99,69.42 46.09,69.31 46.84,69.91C47.59,70.52 47.71,71.62 47.1,72.37L39.03,82.32C38.68,82.75 38.18,82.97 37.67,82.97Z" style="fill:rgb(142,197,79);fill-rule:nonzero;"/>
    </g>
    <g>
        <path d="M53.81,99.48C53.2,99.48 52.6,99.16 52.28,98.58C51.81,97.74 52.11,96.67 52.95,96.2L64.02,90.01C64.86,89.54 65.93,89.84 66.4,90.68C66.87,91.52 66.57,92.59 65.73,93.06L54.66,99.25C54.39,99.41 54.1,99.48 53.81,99.48Z" style="fill:rgb(142,197,79);fill-rule:nonzero;"/>
    </g>
    <g>
        <path d="M69.2,119.76C68.9,119.76 68.59,119.68 68.3,119.51C67.47,119.01 67.2,117.94 67.69,117.11L75.2,104.53C75.7,103.7 76.77,103.43 77.6,103.92C78.43,104.42 78.7,105.49 78.21,106.32L70.7,118.9C70.38,119.45 69.8,119.76 69.2,119.76Z" style="fill:rgb(142,197,79);fill-rule:nonzero;"/>
    </g>
    <g>
        <path d="M93.6,123.51C92.79,123.51 92.06,122.94 91.89,122.12L89.07,108.61C88.87,107.66 89.48,106.74 90.43,106.54C91.37,106.34 92.3,106.95 92.5,107.9L95.32,121.41C95.52,122.36 94.91,123.28 93.96,123.48C93.84,123.5 93.72,123.51 93.6,123.51Z" style="fill:rgb(142,197,79);fill-rule:nonzero;"/>
    </g>
    <g>
        <path d="M115,112.62C114.55,112.62 114.09,112.45 113.75,112.1L104.36,102.53C103.68,101.84 103.69,100.73 104.38,100.05C105.07,99.37 106.18,99.38 106.86,100.07L116.25,109.64C116.93,110.33 116.92,111.44 116.23,112.12C115.89,112.46 115.45,112.62 115,112.62Z" style="fill:rgb(142,197,79);fill-rule:nonzero;"/>
    </g>
    <g>
        <path d="M111.06,87.85C110.21,87.85 109.47,87.23 109.33,86.37C109.18,85.41 109.84,84.52 110.79,84.37L121.68,82.68C122.64,82.54 123.53,83.19 123.68,84.14C123.83,85.1 123.17,85.99 122.22,86.14L111.33,87.83C111.24,87.84 111.15,87.85 111.06,87.85Z" style="fill:rgb(142,197,79);fill-rule:nonzero;"/>
    </g>
    <g>
        <path d="M99.42,72.45C99.02,72.45 98.62,72.31 98.29,72.04C97.55,71.42 97.46,70.31 98.08,69.57L107.28,58.68C107.9,57.94 109.01,57.85 109.75,58.47C110.49,59.09 110.58,60.2 109.96,60.94L100.76,71.83C100.41,72.24 99.92,72.45 99.42,72.45Z" style="fill:rgb(142,197,79);fill-rule:nonzero;"/>
    </g>
    <g>
        <path d="M81.03,55C80.63,55 80.23,54.86 79.9,54.58C79.16,53.96 79.07,52.85 79.7,52.11L89.08,41.04C89.7,40.3 90.81,40.21 91.55,40.84C92.29,41.46 92.38,42.57 91.75,43.31L82.37,54.38C82.02,54.79 81.52,55 81.03,55Z" style="fill:rgb(142,197,79);fill-rule:nonzero;"/>
    </g>
    <g>
        <path d="M57.19,22.9C56.89,22.9 56.59,22.82 56.31,22.66C55.47,22.17 55.19,21.1 55.68,20.27L63,7.69C63.49,6.86 64.56,6.57 65.39,7.06C66.22,7.55 66.51,8.62 66.02,9.45L58.7,22.03C58.38,22.59 57.79,22.9 57.19,22.9Z" style="fill:rgb(111,160,59);fill-rule:nonzero;"/>
    </g>
    <g>
        <path d="M72.58,43.36C72.04,43.36 71.51,43.11 71.17,42.64C70.6,41.86 70.77,40.77 71.55,40.19L82.81,31.93C83.59,31.36 84.68,31.53 85.26,32.31C85.83,33.09 85.66,34.18 84.88,34.76L73.62,43.02C73.3,43.25 72.94,43.36 72.58,43.36Z" style="fill:rgb(111,160,59);fill-rule:nonzero;"/>
    </g>
    <g>
        <path d="M90.6,64.76C90.3,64.76 89.99,64.68 89.71,64.52C88.88,64.03 88.6,62.96 89.09,62.12L96.6,49.36C97.09,48.53 98.16,48.25 99,48.74C99.83,49.23 100.11,50.3 99.62,51.14L92.11,63.9C91.78,64.45 91.2,64.76 90.6,64.76Z" style="fill:rgb(111,160,59);fill-rule:nonzero;"/>
    </g>
    <g>
        <path d="M105.62,79.4C105.06,79.4 104.51,79.13 104.17,78.64C103.62,77.84 103.83,76.75 104.62,76.21L114.76,69.26C115.56,68.71 116.65,68.92 117.19,69.71C117.74,70.51 117.53,71.6 116.74,72.14L106.6,79.09C106.3,79.3 105.96,79.4 105.62,79.4Z" style="fill:rgb(111,160,59);fill-rule:nonzero;"/>
    </g>
    <g>
        <path d="M103.55,118.82C102.92,118.82 102.31,118.48 102,117.88L96,106.43C95.55,105.57 95.88,104.52 96.74,104.07C97.6,103.62 98.65,103.95 99.1,104.81L105.11,116.26C105.56,117.12 105.23,118.17 104.37,118.62C104.11,118.75 103.83,118.82 103.55,118.82Z" style="fill:rgb(111,160,59);fill-rule:nonzero;"/>
    </g>
    <g>
        <path d="M81.41,123.51C81.3,123.51 81.18,123.5 81.07,123.48C80.12,123.29 79.51,122.37 79.7,121.42L82.33,108.28C82.52,107.33 83.45,106.71 84.39,106.91C85.34,107.1 85.95,108.02 85.76,108.97L83.13,122.11C82.95,122.93 82.22,123.51 81.41,123.51Z" style="fill:rgb(111,160,59);fill-rule:nonzero;"/>
    </g>
    <g>
        <path d="M59.25,109.43C58.73,109.43 58.22,109.2 57.88,108.77C57.28,108.01 57.41,106.91 58.16,106.31L68.11,98.43C68.87,97.83 69.97,97.96 70.57,98.71C71.17,99.47 71.04,100.57 70.29,101.17L60.34,109.05C60.02,109.31 59.64,109.43 59.25,109.43Z" style="fill:rgb(111,160,59);fill-rule:nonzero;"/>
    </g>
    <g>
        <path d="M47.99,90.1C47.5,90.1 47,89.89 46.66,89.49C46.03,88.76 46.12,87.65 46.85,87.02L57.17,78.2C57.9,77.57 59.01,77.66 59.64,78.39C60.27,79.12 60.18,80.23 59.45,80.86L49.13,89.68C48.8,89.96 48.39,90.1 47.99,90.1Z" style="fill:rgb(111,160,59);fill-rule:nonzero;"/>
    </g>
    <g>
        <path d="M22.65,75.83C22.29,75.83 21.92,75.72 21.61,75.49C20.83,74.91 20.67,73.82 21.25,73.04L28.76,62.9C29.33,62.12 30.43,61.96 31.21,62.54C31.99,63.12 32.15,64.21 31.57,64.99L24.06,75.13C23.71,75.59 23.19,75.83 22.65,75.83Z" style="fill:rgb(111,160,59);fill-rule:nonzero;"/>
    </g>
    <g>
        <path d="M24.15,29.09C23.81,29.09 23.47,28.99 23.17,28.79L12.1,21.28C11.3,20.74 11.09,19.65 11.63,18.85C12.17,18.05 13.26,17.84 14.06,18.38L25.13,25.89C25.93,26.43 26.14,27.52 25.6,28.32C25.26,28.82 24.71,29.09 24.15,29.09Z" style="fill:rgb(111,160,59);fill-rule:nonzero;"/>
    </g>
    <g>
        <path d="M35.6,19.15C34.76,19.15 34.02,18.55 33.88,17.69L32,6.61C31.84,5.66 32.48,4.75 33.43,4.59C34.39,4.43 35.29,5.07 35.45,6.02L37.33,17.09C37.49,18.04 36.85,18.95 35.9,19.11C35.8,19.14 35.7,19.15 35.6,19.15Z" style="fill:rgb(111,160,59);fill-rule:nonzero;"/>
    </g>
    <path d="M23.4,21.9C9.51,36.73 14.39,53.97 25.28,63.2C38.79,74.65 51.84,74.46 57.47,81.78C63.1,89.1 63.38,99.8 75.77,108.06C84.45,113.85 97.28,112.94 105.24,104.4C113.37,95.68 116.13,80.54 105.38,72.44C94.54,64.27 92.29,63.76 82.71,52.87C73.13,41.98 69.58,25.84 58.13,18.33C46.68,10.82 32.03,12.69 23.4,21.9Z" style="fill:rgb(91,140,49);fill-rule:nonzero;"/>
    <path d="M27.91,26.59C18.15,37.1 19.45,52.34 34.1,61.5C46.11,69.01 51.78,67.94 61.32,77.92C69.39,86.37 70.18,95.64 76.15,100.73C84.97,108.24 95.12,105.66 101.02,100.31C107.07,94.82 110.12,82.52 96.23,72.39C82.34,62.26 78.12,56.45 75.21,52.12C69.39,43.49 65.07,33.72 56.25,25.84C47.82,18.31 35.77,18.13 27.91,26.59Z" style="fill:rgb(142,197,79);fill-rule:nonzero;"/>
    <path d="M81.59,84.13C82.94,86.46 82.06,89.01 80.75,89.95C78.6,91.49 75.81,90.78 74.46,88.45C73.11,86.12 73.62,83.3 75.96,82.07C77.74,81.12 80.24,81.79 81.59,84.13Z" style="fill:rgb(91,140,49);fill-rule:nonzero;"/>
    <path d="M96.33,90.69C96.56,92.86 95.3,94.82 92.95,95.01C90.14,95.24 88.82,92.96 88.82,90.79C88.82,88.62 90.23,86.75 92.67,86.85C94.79,86.93 96.14,88.91 96.33,90.69Z" style="fill:rgb(91,140,49);fill-rule:nonzero;"/>
    <path d="M80.75,68.55C81.22,71.74 79.62,74.37 75.87,74.56C72.94,74.71 70.01,71.78 70.03,68.93C70.05,65.46 72.19,63.58 75.12,63.58C78.05,63.57 80.33,65.72 80.75,68.55Z" style="fill:rgb(91,140,49);fill-rule:nonzero;"/>
    <path d="M52.17,36.4C57.93,41.74 60.87,50.43 56.63,54.28C52.59,57.94 43.49,56.06 37.48,50.43C31.28,44.62 32.36,38.08 35.99,34.42C39.64,30.72 47.08,31.68 52.17,36.4Z" style="fill:rgb(251,199,70);fill-rule:nonzero;"/>
    <path d="M69.42,54.71C70.05,56.69 69.52,58.68 67.79,59.39C65.73,60.23 63.75,59.11 62.82,56.57C62.1,54.63 63.29,52.71 65.07,52.15C66.84,51.59 68.79,52.74 69.42,54.71Z" style="fill:rgb(91,140,49);fill-rule:nonzero;"/>
    <path d="M60.85,62.4C61.78,63.67 61.82,65.53 60.65,66.38C59.48,67.24 57.53,66.77 56.6,65.5C55.67,64.23 55.87,62.5 57.04,61.65C58.22,60.79 59.93,61.13 60.85,62.4Z" style="fill:rgb(91,140,49);fill-rule:nonzero;"/>
    <g>
        <path d="M6.88,48.99C5.98,48.99 5.22,48.3 5.14,47.39C5.06,46.43 5.77,45.58 6.74,45.5L17.81,44.56C18.77,44.47 19.62,45.19 19.7,46.16C19.78,47.12 19.07,47.97 18.1,48.05L7.03,48.98C6.98,48.99 6.93,48.99 6.88,48.99Z" style="fill:rgb(91,140,49);fill-rule:nonzero;"/>
    </g>
    <g>
        <path d="M120.26,101.17C119.95,101.17 119.64,101.09 119.36,100.92L108.1,94.16C107.27,93.66 107,92.59 107.5,91.76C108,90.93 109.07,90.66 109.9,91.16L121.16,97.92C121.99,98.42 122.26,99.49 121.76,100.32C121.43,100.87 120.85,101.17 120.26,101.17Z" style="fill:rgb(91,140,49);fill-rule:nonzero;"/>
    </g>
</svg>
